!!!COM: Schubert, Franz Peter
!!!CDT: 1797-1828
!!!OTL: Lied der Mignon
!!!OPS: Opus 62
!!!ONM: No. 4
!!!SCT: DV 877
!!!YOR: Franz Schubert: Selected songs
!!!PPE: Max Friedlaender
!!!PSR: C.F. Peters 
!!!PSP: Frankfurt, London, New York
!!!PSD: n.d.
!!!PPG: pp.79-81
!!!ODT: 1826///
!!!ONB: Leading and trailing bars of rest have been deleted.
!!!ONB: The tempo of 54 quarter-notes per minute is taken from the following recorded performance
!!!MPN: Janet Baker
!!!MPD: 1971///
!!!MPT: Janet Baker sings Schubert (Seraphim SIB-6083)
**kern
*M6/8
*MM54[Langsam]
*a:
*k[]
=1
4.a
4b
8b
=2
4cc
(16cc
16b)
4.a
=3
4.b
(8.cc
16b)
8cc
=4
(4ee
8dd)
4b
8r
=5
4.cc
4dd
8dd
=6
[4ee
16ee]
16ff
(4ee
8dd)
=7
4.cc
(8bM
8a)
8b
=8
4.dd
4cc
8r
=9
4.r
4r
8g
=10
4cc
8cc
4ee-
8ee-
=11
4dd
8dd
(8dd
8ee-)
8cc
=12
4.cc
4b-
8b-
=13
4a
8a
4cc#
8cc#
=14
4dd
8dd
(8.ff
16ee)
(16dd
16ccn)
=15
(4b
16dd
16cc)
4b
8r
=16
2.r
=17
4b
8r
4cc
8b
=18
4ee
8cc
4a
8r
=19
(4ff
8ee)
(8.b
16cc)
8b
=20
(4ee
8cc)
4a
8r
=21
4.r
4r
8cc#
=22
16.cc#
32dd
8dd
8r
4r
8ffn
=23
8.ffn
16ff
16.ff
32ff
8ff
8cc
16r
16cc
=24
16.cc
32bn
8b
8r
4r
8b
=25
4b
8b
[4cc
16cc]
16a
=26
(16a
16g#)
8g#
8r
4.r
=27
4.r
4.r;
=28
4.a
4b
8b
=29
4cc
(16cc
16b)
4.a
=30
4.b
(8.cc
16b)
8cc
=31
(4ee
8dd)
4.b
=32
4.cc
4dd
8dd
=33
4ee
8ee
4.ff
=34
8a
8g#
8a
[(4cc
16cc]
16b)
=35
4a
8r
4.r
==
*-
!!!ENC: David Huron
!!!EMD: Paul von Hippel updated this file in the following ways (1998/9/2,21-22/):
!!!EMD:  (1) changed the representation of slurs from curly braces to parentheses 
!!!EMD:  (2) changed freeform comments into reference records and tandem interpretations
!!!EMD:  (3) changed final barline from quadruple (====) to double (==)
!!!EMD:  (4) added key signatures, key designations, and tempi
!!!EEV: Version 2.0
